X:1
T:That City
T:That City
T:E. A. Hanchett
T:Maria Burbank Williams Barnes, 1874
T:Public Domain Courtesy of the Cyber Hymnal™
T:Public Domain Courtesy of the Cyber Hymnal™
C:E. A. Hanchett
Z:Public Domain
Z:Courtesy of the Cyber Hymnal™
%%score ( 1 2 ) ( 3 4 )
L:1/8
Q:1/4=100
M:6/8
K:Bb
V:1 treble 
V:2 treble 
V:3 bass 
V:4 bass 
V:1
 [DF] | [DF]2 [DF] [EG]2 [DF] | [DF] [DB]2 z [FB] | [FA]2 [FG] [FA]2 [EG] | [DF]3- [DF]2 [DF] | %5
w: 1.~You|tell me of a|ci- ty Which|is so bright and|fair; * Oh,|
w: 2.~I|think a- bout that|ci- ty Of|which I have been|told, * Whose|
w: 3.~Oh,|dear and bless- èd|ci- ty, Could|I but en- ter|in, * I|
 [DF]2 [DF] [EG]2 [DF] | [DF]2 [FB] [FB]2 [Fc] | [Fd]2 [FB] (BA)[_EB] | [Fc]3- [Fc]2 [Fc] | %9
w: why do not the|friends I love Talk|more of go- * ing|there? * I|
w: gates are made of|shin- ing pearl, Whose|streets are paved * with|gold. * The|
w: should be free from|ev- ery pain, From|care, and doubt, * and|sin. * Oh,|
 [^Fd]2 [Fc] [GB]2 [FA] | (c2 B) [FA]2 [EG] | [EG]2 [DF] [DF]2 [Fd] | [Fc]3- [Fc]2 [Fd] | %13
w: hear them speak of|plea- * sures Which|earth- ly things have|giv’n; * Why|
w: firm and strong foun-|da- * tion Is|built of jew- els|rare; * I’m|
w: let me bear each|tri- * al As|pa- tient as I|may, * For|
 [Ff]2 [Fe] [Fd]2 [Ec] | ([DB]2 [FA]) [EG]2 [EG] | [EG]2 [EF] [Fd]2 [Ec] | [DB]3- [DB]2 || %17
w: do they nev- er|men- * tion The|bet- ter joys of|Heav’n? *|
w: sure that noth- ing|earth- * ly Can|with those walls com-|pare. *|
w: soon will all things|mor- * tal For-|ev- er pass a-|way. *|
"^Refrain" [EG] | [DF][EG][DF] ([DF][EG])[EA] | [DB]3 [DB]2 [DA] | [EG][EA][EG] [=EG][EA][EB] | %21
w: ||||
w: “A|ci- ty which hath * foun-|da- tions, Whose|build- er and mak- er is|
w: ||||
 [Fc]3- [Fc]2 [Fc] | [Fd][Fd][Fd] [Fd][Fc][FB] | [Gf][Ge][Ge] !fermata![Ge]2 [Ge] | %24
w: |||
w: God”; * Which|shin- eth a- far Like a|beau- ti- ful star, By|
w: |||
 ([Fd][Ec])[DB] (FG)[EA] | [DB]3- [DB]2 |] %26
w: ||
w: saints * and an- * gels|trod! *|
w: ||
V:2
 x | x6 | x5 | x6 | x6 | x6 | x6 | x3 =E2 x | x6 | x6 | G3 x3 | x6 | x6 | x6 | x6 | x6 | x5 || x | %18
 x6 | x6 | x6 | x6 | x6 | x6 | x3 E2 x | x5 |] %26
V:3
 [B,,B,] | [B,,B,]2 [B,,B,] [B,,B,]2 [B,,B,] | [B,,B,] [B,,F,]2 z [B,,D] | %3
 [F,C]2 [F,B,] [F,C]2 [F,A,] | [B,,B,]3- [B,,B,]2 [B,,B,] | [B,,B,]2 [B,,B,] [B,,B,]2 [B,,B,] | %6
 [B,,B,]2 [B,,D] [B,,D]2 [B,,D] | B,2 [B,D] [G,C]2 [G,C] | [F,A,]3- [F,A,]2 [F,A,] | %9
 [D,A,]2 [D,A,] [D,D]2 [D,C] | [E,B,]3 [E,B,]2 [E,B,] | [B,,B,]2 [B,,B,] [B,,B,]2 [B,,B,] | %12
 [F,A,]3- [F,A,]2 B, | [B,D]2 [B,C] B,2 [B,,B,] | B,3 [E,B,]2 [E,B,] | %15
 [F,A,]2 [F,A,] [F,A,]2 [F,A,] | [B,,B,]3- [B,,B,]2 || [B,,B,] | [B,,B,]3 [B,,B,]2 [B,,B,] | %19
 ([B,,B,]2 [B,,B,]) ([B,,B,][B,,B,])[B,,B,] | [E,B,]3 [C,C]2 [C,C] | %21
 ([F,A,][F,A,][F,A,] [F,A,]2) [F,A,] | [B,,B,][B,,B,][B,,B,] [B,,B,][C,A,][D,B,] | %23
 [E,B,][E,B,][E,B,] !fermata![E,B,]2 [E,B,] | [F,B,]2 [F,B,] (A,G,)F, | [B,,F,]3- [B,,F,]2 |] %26
V:4
 x | x6 | x5 | x6 | x6 | x6 | x6 | B,2 x4 | x6 | x6 | x6 | x6 | x5 B, | x3 B,2 x | (B,,2 D,) x3 | %15
 x6 | x5 || x | x6 | x6 | x6 | x6 | x6 | x6 | x3 F,2 F, | x5 |] %26

